X: 27570
T: Money Tree, The
R: jig
M: 6/8
K: Gmajor
|:dfg dfd|cAD BGG|AdA BGG|FGA DFA|
dfa gdg|faf gdB|ecA BGE|1 AFD G2B:|2 AFD GFE||
|:DEF GAB|EFG ABc|d^cd ecA|AGF EFE|
DEF GAB|EFG ABc|d^cd ecA|AGF G3:|

